X:18778
T:Will You Come down to Limerick?
R:slip jig
H:See also #21
D:Sean Keane: Jig it in Style.
Z:id:hn-slipjig-22
M:9/8
L:1/8
K:G
d|:cAG GDG ~G3|cAG GDE =F2d|cAG GDG ~G3|1 ^FAd ^fed cAd:|2 ^FAd ^fed cAG||
de^f gaf ~g3|def gag =fdc|_Bcd =fge ~f3|_Bcd =fed cAG|
de^f gaf ~g3|de^f gag fga|bgg ag^f g2e|^fed cAG ^FGA||
|:B2d cA^F ~G3|~B3 GBd cBA|BDD ADD ~G3|1 ^FAd ^fed cAG:|2 ^FAd ^fed cAd|]


